packages/tokens/icons/lightning/size24Px.svg

<svg viewBox="0 0 24 24" fill="none" xmlns="http://www.w3.org/2000/svg" width="1em" height="1em"><path d="M4.68165 11.9048L11.6964 2.4348C12.2703 1.66015 13.5 2.066 13.5 3.03003L13.5 9.5C13.5 10.0523 13.9477 10.5 14.5 10.5H18.5148C19.3361 10.5 19.8072 11.4353 19.3183 12.0952L12.3036 21.5652C11.7297 22.3399 10.5 21.934 10.5 20.97V14.5C10.5 13.9477 10.0523 13.5 9.5 13.5L5.48521 13.5C4.6639 13.5 4.19279 12.5647 4.68165 11.9048Z" stroke="currentColor" stroke-linecap="round" stroke-linejoin="round"/></svg>

<svg xmlns="http://www.w3.org/2000/svg" fill="none" viewBox="0 0 24 24" width="1em" height="1em"><path stroke="currentColor" stroke-linecap="round" stroke-linejoin="round" d="m4.682 11.905 7.014-9.47c.574-.775 1.804-.369 1.804.595V9.5a1 1 0 0 0 1 1h4.015a1 1 0 0 1 .803 1.595l-7.014 9.47c-.574.775-1.804.369-1.804-.595V14.5a1 1 0 0 0-1-1H5.485a1 1 0 0 1-.803-1.595Z"/></svg>
